X:136
T:Walls of Liscarrol, The
T:Belles of Liscarroll, The
T:Old Walls of Liscarroll, The
R:jig
H:Similar to "Tom Billy's", #21
D:Frankie Gavin: Frankie Goes to Town
D:Mick O'Brien & Caoimh\'in \'O Raghallaigh: Deadly Buzz
Z:id:hn-jig-136
M:6/8
K:Dmix
EFF DGG | DEF E2D | DEF GFG | AFD D2E |
~F3 GFG | AGA fed | ecA GFE |1 FDD D2E :|2 FDD DAB ||
|: ~c3 ~d3 | ecA AGE | ~c3 dcA | AGF GAB |
~c3 ~d3 | efd eag | edc ABc |1 BAG A2B :|2 BAG AB^c ||
|: ~d3 AFA | GAG FED | d^cd AFA | GFE DFA |
~d3 AFA | DFA fed | ecA GFE | FDD DFA :|
|: dFF AFF | dFF AFA | FGE cEE | GFE GFE |
d2F AFA | DFA fed | ecA GFE |1 FDD DFA :|2 FDD D2E ||
P:variations
|: E~F2 DGG | DFF EFD | DEF GAG | FAA D2E |
FEF GFG | AGA fed | e^cA GFE |1 FAD D2E :|2 FAD DAB ||
|: =c3 d^cd | e^cA AGE | =c2A dcB | AGE GAB |
=cBc d^cd | ede eag | ed^c AB=c |1 BAA A2B :|2 BAA AB^c ||
|: d3 AFA | GAG FED | d^cd AFA | GFE DFA |
d^cd AFA | DFA fed | e^cA GFE | FAD DFA :|
|: dAF AFF | dFF AFF | GEE =cEE | FAG FED |
dFF AFA | DFA fed | e^cA GFE |1 FAD DFA :|2 FDD D2E ||

